components/2.0/icon/icons/icon-link-22px.svg

<svg width="22" height="22" xmlns="http://www.w3.org/2000/svg"><g fill="#3D4752" fill-rule="evenodd"><path d="M18.7 3.3c-1.7-1.7-4.5-1.7-6.2 0L11 5h1.4l1.4.6.5-.5c.7-.6 2-.6 2.5 0 .7.8.7 2 0 2.6l-4.6 4.6c-.7.7-2 .7-2.5 0 0 0-.3-.3-.3-.5l-2 2c.2 0 .3.2.5.4 1.6 1.8 4.4 1.8 6 0l4.7-4.5c1.7-1.7 1.7-4.5 0-6.2z"/><path d="M9.3 17L8 16.7l-.3.4c-.7.7-2 .7-2.5 0-.7-.7-.7-2 0-2.5L9.8 10c.7-.8 2-.8 2.5 0 0 0 .3.2.3.4l2-2c-.2 0-.3-.2-.5-.4-1.6-1.7-4.4-1.7-6 0l-4.7 4.6c-1.7 1.7-1.7 4.5 0 6.2 1.7 1.7 4.5 1.7 6.2 0l1.4-1.4s-1 0-1.7-.3z"/></g></svg>

<?xml version="1.0" encoding="UTF-8" standalone="no"?>
<svg width="22px" height="22px" viewBox="0 0 22 22" version="1.1" xmlns="http://www.w3.org/2000/svg" xmlns:xlink="http://www.w3.org/1999/xlink" xmlns:sketch="http://www.bohemiancoding.com/sketch/ns">
    <!-- Generator: Sketch 3.4.4 (17249) - http://www.bohemiancoding.com/sketch -->
    <title>icon-link-22px</title>
    <desc>Created with Sketch.</desc>
    <defs></defs>
    <g id="22px" stroke="none" stroke-width="1" fill="none" fill-rule="evenodd" sketch:type="MSPage">
        <g id="icon-link-22px" sketch:type="MSArtboardGroup" fill="#3D4752">
            <path d="M18.7,3.3 C17,1.6 14.2,1.6 12.5,3.3 L10.9,4.9 C10.9,4.9 11.6,4.9 12.4,5.1 C13.2,5.3 13.8,5.6 13.8,5.6 L14.3,5.1 C15,4.4 16.2,4.4 16.8,5.1 C17.5,5.8 17.5,7 16.8,7.6 L12.2,12.2 C11.5,12.9 10.3,12.9 9.7,12.2 C9.6,12.1 9.4,11.9 9.4,11.7 L7.5,13.6 C7.6,13.8 7.7,13.9 7.9,14.1 C9.6,15.8 12.4,15.8 14.1,14.1 L18.7,9.5 C20.4,7.8 20.4,5 18.7,3.3 L18.7,3.3 Z" id="Shape" sketch:type="MSShapeGroup"></path>
            <path d="M9.3,17.1 C8.5,16.8 8.1,16.6 8.1,16.6 L7.7,17 C7,17.7 5.8,17.7 5.2,17 C4.5,16.3 4.5,15.1 5.2,14.5 L9.8,9.9 C10.5,9.2 11.7,9.2 12.3,9.9 C12.4,10 12.6,10.2 12.6,10.4 L14.5,8.5 C14.4,8.3 14.3,8.2 14.1,8 C12.4,6.3 9.6,6.3 7.9,8 L3.3,12.6 C1.6,14.3 1.6,17.1 3.3,18.8 C5,20.5 7.8,20.5 9.5,18.8 L10.9,17.4 C10.9,17.3 10.1,17.3 9.3,17.1 L9.3,17.1 Z" id="Shape" sketch:type="MSShapeGroup"></path>
        </g>
    </g>
</svg>
